!!!!SEGMENT: pl-wnifc--13846--085_anonim--85-gdy-w-czystem-polu-sloneczko-swieci.krn
!!!kernsource:
!!!cenid: 18xx:3307
!!!COM: Anonim
!!!COM-rismid: pe30004985
!!!CDT:
!!!CNT:
!!!OTL: 85. Gdy w czystém polu słoneczko świeci
!!!PDT: 1833
!!!AGN:
!!!SMS-siglum: PL-Wnifc
!!!SMS-shelfmark: 13846
!!!SMS-shelfwork: 085 W
!!!NIFC-rismid: 1001038998
!!!URL-scan: http://repozytorium.nifc.pl/skany/pl-wnifc-nut--13846
!!!ONB-nifc:
!!!OMD: Largo.
!!!key: G
**kern	**kern	**kern	**text
*part2	*part2	*part1	*part1
*staff3	*staff2	*staff1	*staff1
*I"FORTEPIAN.	*I"FORTEPIAN.	*I"GŁOS.	*
*Ipiano	*Ipiano	*Ivox	*
*ICklav	*ICklav	*ICvox	*
*IGacmp	*IGacmp	*IGsolo	*
*clefF4	*clefG2	*clefG2	*
*k[f#]	*k[f#]	*k[f#]	*
*g:	*g:	*g:	*
*M3/8	*M3/8	*M3/8	*
=1-	=1-	=1-	=1-
!	!LO:TX:a:t=E. 50.:rj	!	!
8GG/ 8GGG/	16gg\LL 16g\	(16g/LL	Gdy
.	16bb-X\JJ 16b-X\	16b-X\JJ)	.
8d\L 8B-X\ 8G\	8.ddd\L 8.dd\	8.dd\	wczy-
8en\J 8B-\ 8G\	.	.	.
.	16ccc#X\Jk 16cc#X\	16cc#X\	-stém
=2	=2	=2	=2
!	!LO:TUP:a:problem:klamra łukowa	!LO:TUP:a:problem:klamra łukowa	!
8en\ 8c#X\ 8B-X\ 8G\	24eee\LL 24ee\	24ee\LL	po-
.	24ddd\ 24dd\	24dd\	.
.	24ccc#X\JJ 24cc#X\	24cc#X\JJ	.
4d\ 4Bn\ 4G\	4ddd\ 4dd\;	4dd\;	-lu
!!LO:LB:g=original
=3	=3	=3	=3
16DD/	16bbn\LL	16bn/	sło-
*clefG2	*	*	*
16d/	16bb\JJ 16dd\	16b/	-necz-
16b/LL 16g/	16ddd\LL 16dd\	16dd\LL	-ko
16d/^	16ccc\JJ 16dd\^<	16cc\JJ	.
!	!LO:N:vis=16.	!LO:N:vis=16.	!
16cc/ 16f#/	16aa\LL 16dd\	(<16a/LL	swié-
16d/^JJ	32ccc\L 32dd\	32cc/L	.
.	32bb\JJJ 32dd\^<	32b/JJJ)	.
=4	=4	=4	=4
4.g/	4.gg\ 4.dd\ 4.b\	4.g/	-ci
=5	=5	=5	=5
*clefF4	*	*	*
8GG/ 8GGG/	16gg\LL 16g\	16g/LL	dzio-
.	16bb-X\JJ 16b-X\	16b-X\JJ	-nek
8d\L 8B-X\ 8G\	8ddd\L 8dd\	8.dd\L	przy
8en\J 8B-\ 8G\	8ccc#X\J 8cc#X\	.	.
!	!	!LO:N:vis=8	!
.	.	16cc#X\Jk	ro-
!!LO:PB:g=original
=6	=6	=6	=6
!	!LO:N:vis=16.	!LO:N:vis=16.	!
8en\ 8c#X\ 8B-X\ 8G\	16eee\LL 16ee\	(>16ee\LL	-bo-
.	32ddd\L 32dd\	32dd\L	.
.	32ccc#X\JJJ 32cc#X\	32cc#X\JJJ)	.
4d\ 4Bn\ 4G\	4ddd\ 4dd\	4dd\	-cie
=7	=7	=7	=7
16DD/	16bbn\LL	16bn\	prę-
*clefG2	*	*	*
16d/LL	16bb\JJ 16dd\	16b\	-dzéj
(<16b/ 16g/	16ddd\LL 16dd\	(>16dd\LL	u-
16d/JJ)	16ccc\JJ 16dd\	16cc\JJ)	.
!	!	!LO:N:vis=16.	!
16cc/LL 16f#/	16aa\LL 16dd\	16a/LL	-le-
16d/JJ	(>32ccc\L 32dd\	(<32cc/L	.
.	32bb\JJJ)	32b/JJJ)	.
=8	=8	=8	=8
*^	*^	*	*
4.b/	4.g\	4.gg/	4.dd\	4.g/	-ci
*v	*v	*	*	*	*
*	*v	*v	*	*
==	==	==	==
*-	*-	*-	*-
!!!system-decoration: <s1>{(s2,s3)}
!!!RDF**kern: > = above
!!!RDF**kern: < = below
!!!RDF**kern: | = vertical stroke
!!!ENC: Andrzej Kubiczek
!!!END: 2021-11-11
